!!!OTL: Der Habersack (37), S.126
!!!id: T0164
**kern
*clefG2
*k[f#]
*G:
{8d
=1
8g
8g
16g
16g
8a
=2
16g
16f#
8e
4d
=3
4g
4a
=4
4b}
8r
=5
{8b
=6
8b
16b
16b
16b
16b
8dd
=7
8dd
8b
4cc}
=8
{8a
8a
8a
16a
16a
=9
8b
16b
16cc
8dd}
=10
{8b
=11
8b
16b
16b
16b
16b
8dd
=12
8dd
8b
4cc}
=13
{8a
8a
8dd
8dd
=14
4b}
8r
==
*-
!!!minrhy: 16
!!!meters: 2/4 ]  ZZ[5
!!!cut: Der Habersack (37), S.126
!!!reg: Luxemburg
!!!trd: Singendes Volk, Esch-Alzette 1937 posth.
!!!rhy1: X_  X_X_XXX_  XXX_X__  X__X__  X__0_
!!!rhy2: X_  X_XXXXX_  X_X_X__
!!!key: T0164  16  G 2/4 ]  ZZ[5
!!!mod: HEPTATONIK IONISCH]  AMBITUS[8
!!!kad: 34543
!!!akz: 1113_35_23_35_23_
!!!fot: 'a__b__c__b__d__
!!!for: 'a__b__c__b__d__
!!!fok: '~a_/__/__/__^a_
!! PHRAS[GEMISCHTTAKTIG]
!!!fkt: Liebeslieder
!!!bem: Esch_Alz., hhh Dominik M&uuml;ller, 1915
!! THILL, Mathias:
!! PR[25] 2K[0] 2G[23] 3K[5] 3G[0] 4A[7] 4Ü[0] 5A[0] 6K[0] 6G[0]
!! 7K[2] 7G[0] 8A[0] MEHR[0] SI[36] ABS[44] SR[23] SP[14]
!! ST[10] 2k[5] 2g[23] 3k[5] 3g[2] 4d[2] 4ü[0] 5d[0] 6k[0] 6g[2]
!! 7k[0] 7g[0] 8d[0] mehr[0] si[39] dm[-3] sr[27] sp[11]
!! 1F[81] 2F[15] 3F[4] 4F[0] LF[0] 2P[0] 3P[0] 4P[0] TRI[0] DF[3] AB[47]
!! TF[0] U3K[0] U3[0] U4[0] U4Ü[0] U5[13] U6K[0] U6[4] U7K[0] U7[4]
!! N1[27] N2K[0] N2[20] N3K[0] N3[13] N4[11] N4Ü[0] N5[7] N6K[0] N6[0]
!!!n7k: 0] N7[0] O1[0] O2K[0] O2[0] O3K[0] O3[0] HÖ[0
!!!RNB: symbol: &uuml;  = u umlaut (UTF-8: Ã¼)
